icons/svg/picture-in-picture-enter.svg

<svg width="24" height="24" viewBox="0 0 24 24" fill="none" xmlns="http://www.w3.org/2000/svg">
<path d="M9.25 18.25H5.75C4.09315 18.25 2.75 16.9069 2.75 15.25V6.75C2.75 5.09315 4.09315 3.75 5.75 3.75H18.25C19.9069 3.75 21.25 5.09315 21.25 6.75V10.25" stroke="currentColor" stroke-width="1.5" stroke-linecap="round" stroke-linejoin="round"/>
<rect x="11" y="12" width="12" height="10" rx="2" fill="currentColor"/>
<path d="M9.99999 7.66675V10.4001C9.99999 10.5657 9.93285 10.7157 9.8243 10.8243M6.66666 11.0001H9.39999C9.5657 11.0001 9.71572 10.9329 9.8243 10.8243M6 7L9 10L9.8243 10.8243" stroke="currentColor" stroke-width="1.5" stroke-linecap="round" stroke-linejoin="round"/>
</svg>

<svg xmlns="http://www.w3.org/2000/svg" width="24" height="24" fill="none" viewBox="0 0 24 24"><path stroke="currentColor" stroke-linecap="round" stroke-linejoin="round" stroke-width="1.5" d="M9.25 18.25h-3.5a3 3 0 0 1-3-3v-8.5a3 3 0 0 1 3-3h12.5a3 3 0 0 1 3 3v3.5"/><rect width="12" height="10" x="11" y="12" fill="currentColor" rx="2"/><path stroke="currentColor" stroke-linecap="round" stroke-linejoin="round" stroke-width="1.5" d="M10 7.667V10.4a.6.6 0 0 1-.176.424M6.667 11H9.4a.6.6 0 0 0 .424-.176M6 7l3 3 .824.824"/></svg>
